X:1
T:Gut Ding musz haben weil
T:Jacob Regnart
T:Source : Leipzig---Breitkopf & Härtel---R.Eitner---1895. First print : Deutsche Lieder mit 3 Stimmen---Nürnberg---D.Gerlach---1579. Editor : André Vierendeels (24/10/17). Notes : Original clefs : C1, C2, C4 Editorial accidentals above the staff
T:Gut Ding musz haben weil
T:©
T:©
C:Jacob Regnart
Z:©
%%score [ 1 2 3 ]
L:1/8
Q:1/4=120
M:2/2
K:C
V:1 treble nm="Soprano" snm="S"
V:2 treble nm="Alto" snm="A"
V:3 treble-8 nm="Tenor" snm="T"
V:1
"^1)" E4 F3 F | F2 F2 E4 | A2 G2 F2 G2 |[M:2/4] E4 :: z2 A2 |[M:2/2]"^b" B2 A2 G2 F2 | %6
w: Gut Ding musz|ha- ben weil;|drumb, gut Gsell, nit|Eil!|Dann|was bald solt ver-|
w: Gut Ding musz|ha- ben weil;|drumb, gut Gsell, nit|Eil!|Und|lasz dich nit er-|
"^b" B4 A2 A2 |"^b" B2 A2 G2 F2 |"^b" B4 A4 :: z2 A2 A3 A | A2 A2 G4 | G2 A2 _B2 A2 | G2 F2 E4 | %13
w: der- ben, ist|leicht- lich zu er-|wer- ben.|Das wirst du|noch er- fa-|ren, eh du kombst|zu dein Ja-|
w: schrec- ken, wann|es sich schon thut|strec- ken!|Das wirst du|noch er- fa-|ren, eh du kombst|zu dein Ja-|
[M:2/4] !fermata!D4 :| %14
w: ren.|
w: ren.|
V:2
"^2)""^1)" C4 D3 D | D2 D2 C4 | F2 E2 D2 D2 |[M:2/4] ^C4 :: z2 F2 |[M:2/2] D2 F2 E2 C2 | %6
w: Gut Ding musz|ha- ben weil,|drumb, gut Gsell, nit|Eil!-|Dann|was bald solt ver-|
w: Gut Ding musz|ha- ben weil,|drumb, gut Gsell, nit|eil!|Dann|es wird oft er-|
 D3 E F2 F2 | D2 F2 E2 C2 | D3 E F4 :: z2 F2 F3 F | F2 F2 E4 | E2 F2 G2 F2 | E2 D2 ^C4 | %13
w: der- * ben, ist|leicht- lich zu er-|wer- * ben.|Das wirst du|noch er- fa-|ren, eh du kombst|zu dein Ja-|
w: lau- * get, da-|mit man lang hat|pran- * get.|Das wirst du|noch er- fa-|ren, eh du kombst|zu dein Ja-|
[M:2/4] !fermata!D4 :| %14
w: ren.|
w: ren.|
V:3
"^3)""^1)""^4)" A4 D3 D | D2 D2 A4 | F2 c2 d2 G2 |[M:2/4] A4 :: z2 F2 |[M:2/2] G2 F2 c2 A2 | %6
w: Gut Ding musz|ha- ben weil,|drumb, gut Gsell, nit|Eil!|Dann|was bald solt ver-|
w: Gut Ding musz|ha- ben weil,|drumb, gut Gsell ni|Eil!|Dann|was dir ist be-|
 G4 F2 F2 | G2 F2 c2 A2 | G4 F4 :: z2 F2 F3 G | A2 B2 c4 | c2 A2 G2 A2 | c2 d2 A4 | %13
w: der- ben, ist|leicht- lich zu er-|wer- ben.|Das wirst du|noch er- fa-|ren, eh du kombst|zu dein Ja-|
w: sche- ret, des|wirst du wol ge-|we- ret,|und gwisz- lich|noch er- fa-|ren, eh du kombst|zu dei Fa-|
[M:2/4] !fermata!D4 :| %14
w: ren.|
w: ren.|

